src/lib/packages/icons/src/assets/filled/shopping-basket-arrow-down.svg

<svg width="24" height="24" viewBox="0 0 24 24" fill="none" xmlns="http://www.w3.org/2000/svg">
<path d="M21 9.00001C21 10.104 20.104 11 19 11H5C3.896 11 3 10.104 3 9.00001C3 7.89601 3.896 7.00001 5 7.00001H6.72803L9.37695 2.61201C9.59095 2.25801 10.052 2.14301 10.406 2.35801C10.76 2.57301 10.875 3.03301 10.66 3.38801L8.479 7.00001H15.53L13.374 3.38401C13.162 3.02901 13.278 2.56801 13.635 2.35601C13.99 2.14501 14.451 2.26001 14.663 2.61701L17.277 7.00101H19C20.104 7.00001 21 7.89601 21 9.00001ZM19.376 12.33L18.77 18.3C18.63 19.83 17.99 21 15.79 21H8.22998C5.98998 21 5.39999 19.83 5.23999 18.3L4.62402 12.331C4.60602 12.154 4.74497 12 4.92297 12H19.078C19.256 12 19.394 12.154 19.376 12.33ZM14.03 15.97C13.737 15.677 13.262 15.677 12.969 15.97L12.749 16.19V14C12.749 13.586 12.413 13.25 11.999 13.25C11.585 13.25 11.249 13.586 11.249 14V16.189L11.0291 15.969C10.7361 15.676 10.261 15.676 9.96802 15.969C9.67502 16.262 9.67502 16.737 9.96802 17.03L11.468 18.53C11.537 18.599 11.62 18.654 11.712 18.692C11.804 18.73 11.901 18.75 11.999 18.75C12.097 18.75 12.194 18.73 12.286 18.692C12.378 18.654 12.461 18.599 12.53 18.53L14.03 17.03C14.323 16.737 14.323 16.263 14.03 15.97Z" fill="currentColor"/>
</svg>

<svg xmlns="http://www.w3.org/2000/svg" width="24" height="24" fill="none"><path fill="currentColor" d="M21 9a2 2 0 0 1-2 2H5a2 2 0 0 1 0-4h1.728l2.649-4.388a.749.749 0 1 1 1.283.776L8.479 7h7.051l-2.156-3.616a.75.75 0 1 1 1.289-.767l2.614 4.384H19A2 2 0 0 1 21 9Zm-1.624 3.33-.606 5.97c-.14 1.53-.78 2.7-2.98 2.7H8.23c-2.24 0-2.83-1.17-2.99-2.7l-.616-5.969A.3.3 0 0 1 4.923 12h14.155a.3.3 0 0 1 .298.33Zm-5.346 3.64a.75.75 0 0 0-1.061 0l-.22.22V14a.75.75 0 0 0-1.5 0v2.189l-.22-.22a.75.75 0 0 0-1.061 1.061l1.5 1.5a.749.749 0 0 0 .818.162.749.749 0 0 0 .244-.162l1.5-1.5a.749.749 0 0 0 0-1.06Z"/></svg>
